school/img/country/CF.svg

<svg width="13" height="12" viewBox="0 0 13 12" fill="none" xmlns="http://www.w3.org/2000/svg">
<rect x="0.25" y="0.25" width="12.5" height="11.5" rx="1.75" fill="white" stroke="#F5F5F5" stroke-width="0.5"/>
<mask id="mask0" mask-type="alpha" maskUnits="userSpaceOnUse" x="0" y="0" width="13" height="12">
<rect x="0.25" y="0.25" width="12.5" height="11.5" rx="1.75" fill="white" stroke="white" stroke-width="0.5"/>
</mask>
<g mask="url(#mask0)">
<path fill-rule="evenodd" clip-rule="evenodd" d="M0 3.2H13V0H0V3.2Z" fill="#083D96"/>
<path fill-rule="evenodd" clip-rule="evenodd" d="M0 8.80004H13V5.60004H0V8.80004Z" fill="#37AE39"/>
<path fill-rule="evenodd" clip-rule="evenodd" d="M0 12H13V8.79999H0V12Z" fill="#FFD13F"/>
<path fill-rule="evenodd" clip-rule="evenodd" d="M4.95239 12H8.04763V0H4.95239V12Z" fill="#E42346"/>
<path fill-rule="evenodd" clip-rule="evenodd" d="M2.16673 2.06796L1.62093 2.57078L1.82231 1.74458L1.28361 1.22914L1.95387 1.22134L2.16673 0.399963L2.37959 1.22134L3.04985 1.22914L2.51115 1.74458L2.71253 2.57078L2.16673 2.06796Z" fill="#FFD03B"/>
</g>
</svg>

<svg width="13" height="12" fill="none" xmlns="http://www.w3.org/2000/svg"><rect x=".25" y=".25" width="12.5" height="11.5" rx="1.75" fill="#fff" stroke="#F5F5F5" stroke-width=".5"/><mask id="a" maskUnits="userSpaceOnUse" x="0" y="0" width="13" height="12"><rect x=".25" y=".25" width="12.5" height="11.5" rx="1.75" fill="#fff" stroke="#fff" stroke-width=".5"/></mask><g mask="url(#a)" fill-rule="evenodd" clip-rule="evenodd"><path d="M0 3.2h13V0H0v3.2z" fill="#083D96"/><path d="M0 8.8h13V5.6H0v3.2z" fill="#37AE39"/><path d="M0 12h13V8.8H0V12z" fill="#FFD13F"/><path d="M4.952 12h3.096V0H4.952v12z" fill="#E42346"/><path d="M2.167 2.068l-.546.503.201-.826-.538-.516.67-.008L2.167.4l.213.821.67.008-.539.516.202.826-.546-.503z" fill="#FFD03B"/></g></svg>
